T: Tir Rafartaigh
M: 6/8
L: 1/8
K: Gmaj
G2A | B/c/dB B2A | ~G3 GAG | E2D D2G | GDd BAG | ~A3 ABc | dcA G2A |
B/c/dB B2A | ~G3 GAG | E2D D2D | BAG ABc | d2d dge |
fga b2a | age deg | a2g gfg | ded g2f- | fd2 BAG | ABc dge | fga b2a |
a2b agf | ~e3 deg | B2c A3- | AB/A/G ABc | d4 gf | dcA :||
